X:1
T:Beautiful Love
T:Beautiful Love
T:As played by Bill Evans
T:V. Young, W. King & E. Van Alstyne
T:Haven Gillespie
T:1931, 1959 Movietone Music Corp
C:V. Young, W. King & E. Van Alstyne
Z:All Rights Reserved
L:1/8
M:4/4
K:F
V:1 treble 
%%MIDI program 40
V:1
 z D3 E2 F2 |:"Em7b5" A6 G2 |"A+7" F3 E D2 EF- |"Dm" F8 |"D7" z F3 G2 A2 |"Gm7" c6 B2 | %6
w: Beau ti ful|love, you're|all a mys- ter- y||Beau- ti- ful|love, what|
w: |love, I've|roamed your par- a- dise;||Search- ing for|love, my|
"C7" A3 G F2 GA- |"Fmaj7" A8 |"Em7b5" z A3"A7" =B2 ^c2 |"Dm" e3 d- d2 A2 |"Gm7" c3 B- B2 D2 | %11
w: have you done to me||I was con-|tent- ed * till|you came * a|
w: dreams to to real- ize.||Reach- ing for|heav- en, * de-|pend- ing * on|
"Bb7" E8 |"A7" z E3 F2 G2 |1"Dm" A8 |"B7b5" ^C6 D2 |"Em7b5" E8 |"A7" z D3 E2 F2 :|2 %17
w: long.|thrill- ing my|soul|with your|song.|Beau- ti- ful|
w: you.|Beau- ti- ful|||||
"Dm" A4"B7#9" ^C2 D2 ||"Bb7" F4"A7" E4 |"Dm" D8 |"Dm" z8 |] %21
w: love, will my|dreams come|true?||
w: ||||

